!! 00014] TT[TB
!! Zh. Ch. 1-4908, 60169), J 4000)
!!!OTL: Laodong huan de xinfu lai
!!!ARE: Asia, China,ÿAnhui
!! Ethnic Group: Han
!! MM,
!!!SCT: C0669
!!!YEM: Copyright 1995, estate of Helmut Schaffrath.
**kern
*ICvox
*Ivox
*M2/4
*k[b-]
*F:
{4a
8a
8cc
=1
4dd
8dd
8cc
=2
4a
8a
8cc
=3
8a
8g
8f
8g
=4
2a}
=5
{4a
8a
8cc
=6
4dd
8dd
8cc
=7
4a
8cc
8a
=8
8g
8a
4cc
=9
4cc
4d
=10
4f
4d}
=11
{8.f
16g
8cc
8a
=12
2g}
=13
{8f
8f
8f
8f
=14
4g
4c
=15
8d
16c
16d
8f
8d
=16
2c}
==
!!!AGN: Xiaodiao, Yangliuqing diao
!! Notenbeilage kopiert. Derzeitige chines. Kinderlieder
!!    Vereinzelt Verzierungen. Vorspiel weggelassen. Die letzte Strophe
!!    endet eine Oktave hoeher.
!!!ONB: ESAC (Essen Associative Code) Database: CHINA
!!!AMT: simple duple
!!!AIN: vox
!!!EED: Helmut Schaffrath
!!!EEV: 1.0
*-
